X:0621
T:Garthland's Strathspey.
M:C
L:1/8
Q:1/4=120
I: :: ||
Z:Jack Campin * www.campin.me.uk * 2009
K:G
D   |TG2BG  B<d       g2 |G2(c/B/A/G/) FAAB    |   G2BG  B<d        g2|c>A (c/B/A/G/) DGG:|
d/c/| Bddg (b/a/g/f/) g2 |B<Gd>G       FA Bd/c/|   Bddg (b/a/g/f/) Tg2|cA   de/c/     BG Gd/c/|
      Bddg (b/a/g/f/) g>c|B<Gd>G       FA AB/c/|{e}d>cBA BGF>E        |FD   de/c/     BGG|]
<end>
<start>
